X:1
T:Rake hornpipe (spongebob theme)
T:Rake hornpipe (spongebob theme)
T:Accordion
T:Michiel Adriaansens
C:Michiel Adriaansens
%%score { 1 | 2 }
L:1/8
Q:1/4=110
M:6/8
K:D
V:1 treble nm="Accordeon" snm="Acc."
V:2 bass 
V:1
"^\n" z6 | z2 z dc=c | .B2 !2!G D2 G | !1!B2 G d2 !1!B | gfg agf | g2 d B2 !3!G | F2 E F2 !1!G | %7
 A2 B =cBA | d2 !2!c d2 e | f2 d =c2 A | .B2 !2!G D2 G | !1!B2 G d2 !1!B | gfg agf | g2 d B2 !1!G | %14
 B=cd g2 d | =c2 A F2 G | A2 G G2 F | G3 z z2 |] %18
V:2
 z6 | z6 | .G,,2 G, .G,,2 G, | .G,,2 G, G,,2 G, | .G,,2 G, .G,,2 G, | .G,,2 G, G,,2 G, | %6
 D,,2 D, D,,2 D, | D,,2 D, D,,2 D, | D,,2 D, D,,2 D, | D,,2 D, D,,2 D, | .G,,2 G, .G,,2 G, | %11
 .G,,2 G, G,,2 G, | .G,,2 G, .G,,2 G, | .G,,2 G, G,,2 G, | G,,2 G, G,,2 G, | .D,,2 D, D,,2 D, | %16
 .G,,2 G, G,,2 G, | G,,4 z2 |] %18

